_includes/icons/ios-discover.svg

<svg fill="#666" height="50" viewBox="0 0 50 50" width="50" xmlns="http://www.w3.org/2000/svg"><path d="m5 7c-2.75 0-5 2.25-5 5v26c0 2.75 2.25 5 5 5h40c2.75 0 5-2.25 5-5v-26c0-2.75-2.25-5-5-5zm0 2h40c1.667969 0 3 1.332031 3 3v26c0 1.667969-1.332031 3-3 3h-40c-1.667969 0-3-1.332031-3-3v-26c0-1.667969 1.332031-3 3-3zm16.1875 12.90625c-1.832031 0-3.3125 1.449219-3.3125 3.25 0 1.820313 1.441406 3.21875 3.28125 3.21875.519531 0 .980469-.085937 1.53125-.34375v-1.4375c-.484375.484375-.921875.6875-1.46875.6875-1.21875 0-2.09375-.871094-2.09375-2.125 0-1.1875.898438-2.125 2.03125-2.125.574219 0 1.027344.195313 1.53125.6875v-1.40625c-.53125-.269531-.980469-.40625-1.5-.40625zm-5.71875.03125c-1.097656 0-1.9375.765625-1.9375 1.78125 0 .851563.402344 1.292969 1.53125 1.71875.65625.246094 1.1875.371094 1.1875.96875 0 .503906-.398437.875-.9375.875-.574219 0-1.035156-.273437-1.3125-.8125l-.78125.75c.558594.816406 1.238281 1.1875 2.15625 1.1875 1.253906 0 2.125-.832031 2.125-2.03125 0-.984375-.40625-1.433594-1.78125-1.9375-.726562-.269531-.9375-.445312-.9375-.78125 0-.390625.386719-.6875.90625-.6875.363281 0 .652344.148438.96875.5l.625-.84375c-.519531-.453125-1.132812-.6875-1.8125-.6875zm10.8125 0c-1.785156 0-3.25 1.433594-3.25 3.21875s1.464844 3.25 3.25 3.25 3.21875-1.464844 3.21875-3.25-1.433594-3.21875-3.21875-3.21875zm-20.375.125v6.1875h1.78125c2.695313 0 3.3125-2.128906 3.3125-3.09375 0-1.828125-1.351562-3.09375-3.3125-3.09375zm5.65625 0v6.1875h1.21875v-6.1875zm17.71875 0 2.625 6.34375h.65625l2.6875-6.34375h-1.3125l-1.6875 4.15625-1.65625-4.15625zm6.5 0v6.1875h3.4375v-1.0625h-2.21875v-1.65625h2.125v-1.0625h-2.125v-1.375h2.21875v-1.03125zm4.21875 0v6.1875h1.21875v-2.5h.15625l1.65625 2.5h1.5l-1.9375-2.59375c.910156-.1875 1.40625-.832031 1.40625-1.78125 0-1.160156-.792969-1.8125-2.1875-1.8125zm1.21875.96875h.375c.753906 0 1.15625.304688 1.15625.90625 0 .621094-.417969.96875-1.1875.96875h-.34375zm-34.09375.0625h.40625c1.644531 0 2.21875 1.089844 2.21875 2.0625 0 .464844-.136719 2.03125-2.3125 2.03125h-.3125z"/></svg>

<svg xmlns="http://www.w3.org/2000/svg" viewBox="0 0 50 50" width="50" height="50" fill="#666"><path d="M 5 7 C 2.25 7 0 9.25 0 12 L 0 38 C 0 40.75 2.25 43 5 43 L 45 43 C 47.75 43 50 40.75 50 38 L 50 12 C 50 9.25 47.75 7 45 7 Z M 5 9 L 45 9 C 46.667969 9 48 10.332031 48 12 L 48 38 C 48 39.667969 46.667969 41 45 41 L 5 41 C 3.332031 41 2 39.667969 2 38 L 2 12 C 2 10.332031 3.332031 9 5 9 Z M 21.1875 21.90625 C 19.355469 21.90625 17.875 23.355469 17.875 25.15625 C 17.875 26.976563 19.316406 28.375 21.15625 28.375 C 21.675781 28.375 22.136719 28.289063 22.6875 28.03125 L 22.6875 26.59375 C 22.203125 27.078125 21.765625 27.28125 21.21875 27.28125 C 20 27.28125 19.125 26.410156 19.125 25.15625 C 19.125 23.96875 20.023438 23.03125 21.15625 23.03125 C 21.730469 23.03125 22.183594 23.226563 22.6875 23.71875 L 22.6875 22.3125 C 22.15625 22.042969 21.707031 21.90625 21.1875 21.90625 Z M 15.46875 21.9375 C 14.371094 21.9375 13.53125 22.703125 13.53125 23.71875 C 13.53125 24.570313 13.933594 25.011719 15.0625 25.4375 C 15.71875 25.683594 16.25 25.808594 16.25 26.40625 C 16.25 26.910156 15.851563 27.28125 15.3125 27.28125 C 14.738281 27.28125 14.277344 27.007813 14 26.46875 L 13.21875 27.21875 C 13.777344 28.035156 14.457031 28.40625 15.375 28.40625 C 16.628906 28.40625 17.5 27.574219 17.5 26.375 C 17.5 25.390625 17.09375 24.941406 15.71875 24.4375 C 14.992188 24.167969 14.78125 23.992188 14.78125 23.65625 C 14.78125 23.265625 15.167969 22.96875 15.6875 22.96875 C 16.050781 22.96875 16.339844 23.117188 16.65625 23.46875 L 17.28125 22.625 C 16.761719 22.171875 16.148438 21.9375 15.46875 21.9375 Z M 26.28125 21.9375 C 24.496094 21.9375 23.03125 23.371094 23.03125 25.15625 C 23.03125 26.941406 24.496094 28.40625 26.28125 28.40625 C 28.066406 28.40625 29.5 26.941406 29.5 25.15625 C 29.5 23.371094 28.066406 21.9375 26.28125 21.9375 Z M 5.90625 22.0625 L 5.90625 28.25 L 7.6875 28.25 C 10.382813 28.25 11 26.121094 11 25.15625 C 11 23.328125 9.648438 22.0625 7.6875 22.0625 Z M 11.5625 22.0625 L 11.5625 28.25 L 12.78125 28.25 L 12.78125 22.0625 Z M 29.28125 22.0625 L 31.90625 28.40625 L 32.5625 28.40625 L 35.25 22.0625 L 33.9375 22.0625 L 32.25 26.21875 L 30.59375 22.0625 Z M 35.78125 22.0625 L 35.78125 28.25 L 39.21875 28.25 L 39.21875 27.1875 L 37 27.1875 L 37 25.53125 L 39.125 25.53125 L 39.125 24.46875 L 37 24.46875 L 37 23.09375 L 39.21875 23.09375 L 39.21875 22.0625 Z M 40 22.0625 L 40 28.25 L 41.21875 28.25 L 41.21875 25.75 L 41.375 25.75 L 43.03125 28.25 L 44.53125 28.25 L 42.59375 25.65625 C 43.503906 25.46875 44 24.824219 44 23.875 C 44 22.714844 43.207031 22.0625 41.8125 22.0625 Z M 41.21875 23.03125 L 41.59375 23.03125 C 42.347656 23.03125 42.75 23.335938 42.75 23.9375 C 42.75 24.558594 42.332031 24.90625 41.5625 24.90625 L 41.21875 24.90625 Z M 7.125 23.09375 L 7.53125 23.09375 C 9.175781 23.09375 9.75 24.183594 9.75 25.15625 C 9.75 25.621094 9.613281 27.1875 7.4375 27.1875 L 7.125 27.1875 Z"/></svg>
